static/img/menus/ico-question.svg

<svg width="11" height="14" viewBox="0 0 11 14" fill="none" xmlns="http://www.w3.org/2000/svg">
<path d="M5.5 0C6.5625 0 7.50763 0.259357 8.33496 0.77832C9.16236 1.29744 9.81354 2.03606 10.2881 2.99316C10.7626 3.95033 11 5.08632 11 6.40039C11 7.71425 10.7625 8.84959 10.2881 9.80664C9.91994 10.5492 9.44379 11.1578 8.86328 11.6367L10.4893 13.7979H8.83398L7.74316 12.3369C7.06478 12.6443 6.31765 12.7998 5.5 12.7998C4.43741 12.7998 3.49242 12.5406 2.66504 12.0215C1.83761 11.5023 1.18647 10.7638 0.711914 9.80664C0.23748 8.8496 3.68088e-05 7.71422 0 6.40039C0 5.08632 0.237358 3.95033 0.711914 2.99316C1.18647 2.03602 1.83762 1.29745 2.66504 0.77832C3.49238 0.259313 4.43748 1.62964e-05 5.5 0ZM5.5 1.41113C4.74573 1.41115 4.06256 1.60229 3.4502 1.9834C2.84179 2.36464 2.35708 2.92674 1.99609 3.66895C1.63922 4.41112 1.45996 5.32165 1.45996 6.40039C1.45999 7.47909 1.6392 8.3897 1.99609 9.13184C2.35706 9.87389 2.84187 10.4352 3.4502 10.8164C4.0626 11.1976 4.74566 11.3887 5.5 11.3887C5.98248 11.3887 6.43466 11.3093 6.85742 11.1533L5.01367 8.73633H6.66797L7.99512 10.4814C8.39905 10.13 8.73397 9.68088 8.99805 9.13184C9.359 8.3897 9.54 7.47909 9.54004 6.40039C9.54004 5.32165 9.35897 4.41112 8.99805 3.66895C8.64112 2.92674 8.15641 2.36464 7.54395 1.9834C6.93561 1.60226 6.25432 1.41113 5.5 1.41113Z" fill="black"/>
</svg>

<svg xmlns="http://www.w3.org/2000/svg" width="11" height="14" fill="none" viewBox="0 0 11 14"><path fill="#000" d="M5.5 0q1.595 0 2.835.778 1.241.78 1.953 2.215Q11 4.43 11 6.4t-.712 3.407a5.5 5.5 0 0 1-1.425 1.83l1.626 2.16H8.834l-1.09-1.46A5.4 5.4 0 0 1 5.5 12.8q-1.594 0-2.835-.779-1.241-.778-1.953-2.214T0 6.4Q0 4.43.712 2.993T2.665.778Q3.905 0 5.5 0m0 1.411q-1.13 0-2.05.572-.912.573-1.454 1.686Q1.46 4.782 1.46 6.4q.001 1.62.536 2.732.542 1.113 1.454 1.684a3.8 3.8 0 0 0 2.05.573q.724-.001 1.357-.236L5.014 8.736h1.654l1.327 1.745q.607-.526 1.003-1.35.542-1.112.542-2.73 0-1.62-.542-2.732-.536-1.113-1.454-1.686A3.77 3.77 0 0 0 5.5 1.411"/></svg>
